X: 41857
T: Virginia, The
R: reel
M: 4/4
K: Dmajor
|:DBBA B3c|BAdB AFEF|DFF2 A3B|AF F2 AFEF|
DBBA B3c|BAdB ABde|f3e defe|dBAF BE E2:|
|:defe d3A|BAFA dAFA|defe defg|a2 bf afeg|
f3d efdB|AF F2 ABde|f3e defe|dBAF BE E2:|

